Login-Hudl-Statsbomb.svg

<?xml version="1.0" encoding="UTF-8" standalone="no"?>
<svg
   width="148.575"
   height="20.457153"
   viewBox="0 0 148.575 20.457153"
   fill="none"
   version="1.1"
   id="svg31"
   sodipodi:docname="Login-Hudl-Statsbomb.svg"
   xmlns:inkscape="http://www.inkscape.org/namespaces/inkscape"
   xmlns:sodipodi="http://sodipodi.sourceforge.net/DTD/sodipodi-0.dtd"
   xmlns="http://www.w3.org/2000/svg"
   xmlns:svg="http://www.w3.org/2000/svg">
  <sodipodi:namedview
     id="namedview33"
     pagecolor="#ffffff"
     bordercolor="#000000"
     borderopacity="0.25"
     inkscape:showpageshadow="2"
     inkscape:pageopacity="0.0"
     inkscape:pagecheckerboard="0"
     inkscape:deskcolor="#d1d1d1"
     showgrid="false" />
  <g
     clip-path="url(#clip0_256_2027)"
     id="g24"
     transform="translate(-2.2044183e-7,-66.116943)">
    <path
       fill-rule="evenodd"
       clip-rule="evenodd"
       d="m 15.0615,78.4821 c -0.0193,0 -0.0425,-0.0078 -0.0541,-0.0274 -0.0115,-0.0156 -0.0154,-0.039 -0.0115,-0.0585 0.3667,-1.1939 0.4902,-2.4503 0.3628,-3.691 0,-0.0234 -0.0154,-0.0429 -0.0385,-0.0507 -1.2237,-0.5775 -2.0073,-1.8143 -2.015,-3.176 0,-0.4604 0.0849,-0.913 0.2547,-1.3383 0.0079,-0.0234 0.0079,-0.0468 -0.0077,-0.0663 C 13.3439,69.8008 13.1238,69.5355 12.8883,69.2857 11.5489,67.8616 9.7965,66.9018 7.88581,66.539 7.85494,66.5351 7.83178,66.5078 7.83178,66.4726 c 0,-0.0312 0.01929,-0.0585 0.05018,-0.0663 2.73674,-0.714 5.64714,-0.0897 7.86274,1.6855 0.0115,0.0078 0.0271,0.0156 0.0386,0.0156 0.0078,0 0.0116,0 0.0193,0 0.3126,-0.0975 0.6408,-0.1443 0.9688,-0.1443 1.4244,-0.0039 2.7097,0.874 3.2348,2.2122 0.5249,1.3383 0.1891,2.8678 -0.8492,3.8549 -0.0155,0.0156 -0.0232,0.0351 -0.0193,0.0546 0.0539,0.4058 0.081,0.8155 0.0849,1.229 0,0.0391 0,0.0742 -0.0039,0.1132 v 0.0702 c 0,0 -0.0115,0.0273 -0.0192,0.039 -1.0732,1.35 -2.5014,2.3684 -4.1187,2.942 H 15.0577 Z M 3.67844,81.7555 c 0,0 -0.03474,-0.0078 -0.04631,-0.0195 -1.96474,-2.0171 -2.89499,-4.8459 -2.51285,-7.6512 0,-0.0195 -0.00386,-0.0429 -0.0193,-0.0546 -1.1772946,-1.112 -1.439773,-2.8951 -0.640758,-4.3075 0.799018,-1.4124 2.451088,-2.0835 3.995078,-1.6231 0.0193,0.0078 0.04246,0 0.0579,-0.0117 0.38985,-0.3121 0.80288,-0.5891 1.23519,-0.8349 0.00772,-0.0039 0.01929,-0.0078 0.03088,-0.0078 1.69839,0.2653 3.29256,1.0066 4.59723,2.142 0.0193,0.0156 0.027,0.0429 0.0193,0.0663 -0.0039,0.0234 -0.0232,0.0429 -0.0502,0.0468 -1.22359,0.2771 -2.37773,0.8116 -3.38904,1.5607 -0.0193,0.0117 -0.02702,0.0351 -0.02702,0.0585 0.01158,0.1171 0.0193,0.238 0.0193,0.3551 -0.01158,1.744 -1.28151,3.2189 -2.99148,3.4686 -0.02316,0 -0.04246,0.0195 -0.05018,0.039 -0.12352,0.3004 -0.23159,0.6165 -0.32038,0.9286 -0.54812,1.8845 -0.49407,3.8978 0.15439,5.751 0.00774,0.0196 0.00387,0.043 -0.00771,0.0586 -0.01158,0.0156 -0.03473,0.0273 -0.05404,0.0273 z m 6.48476,4.8186 c -1.60575,0 -3.00693,-1.1119 -3.38519,-2.6922 C 6.77414,83.8624 6.7587,83.8429 6.7394,83.8351 6.28007,83.6479 5.84002,83.4254 5.41929,83.1679 5.40771,83.1601 5.39613,83.1484 5.39227,83.1367 4.77468,81.5215 4.61641,79.7657 4.93679,78.0646 4.94066,78.0412 4.95995,78.0217 4.98311,78.0138 h 0.01158 c 0.01931,0 0.0386,0.004 0.05404,0.0196 0.84919,0.9284 1.87981,1.6699 3.02623,2.181 0.00771,0 0.01543,0.0039 0.02702,0.0039 0.01544,0 0.02701,-0.0039 0.0386,-0.0117 1.51311,-1.0964 3.61292,-0.7922 4.75932,0.6905 0.0116,0.0157 0.0309,0.0274 0.0502,0.0235 h 0.0077 c 0.3165,-0.043 0.6408,-0.1054 0.9573,-0.1835 1.8914,-0.4643 3.5936,-1.5216 4.8597,-3.016 0.0116,-0.0156 0.0309,-0.0234 0.0501,-0.0234 0.0117,0 0.0233,0 0.031,0.0078 0.027,0.0156 0.0385,0.0469 0.0308,0.0742 -0.7642,2.7234 -2.7174,4.9474 -5.3035,6.032 -0.0193,0.0078 -0.0348,0.0234 -0.0387,0.0468 -0.3667,1.5842 -1.764,2.7078 -3.3736,2.7117 z"
       fill="#ff6300"
       id="path2" />
    <path
       d="m 66.5839,84.1062 c 2.5493,0 4.0347,-1.2606 4.0347,-3.1518 0,-2.0535 -1.5255,-2.6636 -3.1314,-3.2737 -1.1442,-0.4269 -2.1279,-0.8336 -2.1279,-2.0333 0,-0.915 0.7428,-1.6267 2.0475,-1.6267 0.8632,0 1.6662,0.2644 2.2683,0.6507 l 0.5822,-1.1997 c -0.823,-0.488 -1.9071,-0.7726 -3.011,-0.7726 -2.2884,0 -3.5932,1.2403 -3.5932,2.9483 0,1.9724 1.5056,2.6637 3.0311,3.2331 1.2647,0.4677 2.188,0.9151 2.188,2.0739 0,1.0778 -0.9233,1.7691 -2.3084,1.7691 -0.8632,0 -1.8668,-0.2846 -2.5896,-0.6913 l -0.6021,1.3014 c 0.9635,0.5083 2.0876,0.7726 3.2118,0.7726 z"
       fill="#ff6300"
       id="path4" />
    <path
       d="m 75.8024,84.0046 c 0.4617,0 0.8833,-0.0814 1.1041,-0.183 v -1.4234 c -0.1606,0.061 -0.4416,0.1017 -0.7026,0.1017 -0.8832,0 -1.6259,-0.4271 -1.6259,-1.5455 v -6.7507 h 2.3285 v -1.281 H 74.578 v -3.1923 l -1.626,0.549 v 2.6433 h -1.5658 v 1.281 h 1.5658 v 6.8322 c 0,1.9926 1.084,2.9687 2.8504,2.9687 z"
       fill="#ff6300"
       id="path6" />
    <path
       d="m 91.7217,84.0046 c 0.4617,0 0.8832,-0.0814 1.1041,-0.183 v -1.4234 c -0.1607,0.061 -0.4417,0.1017 -0.7026,0.1017 -0.8833,0 -1.626,-0.4271 -1.626,-1.5455 v -6.7507 h 2.3286 v -1.281 h -2.3286 v -3.1923 l -1.6259,0.549 v 2.6433 h -1.5658 v 1.281 h 1.5658 v 6.8322 c 0,1.9926 1.084,2.9687 2.8504,2.9687 z"
       fill="#ff6300"
       id="path8" />
    <path
       d="m 96.8541,84.1062 c 2.5493,0 4.0349,-1.2606 4.0349,-3.1518 0,-2.0535 -1.5257,-2.6636 -3.1316,-3.2737 -1.1442,-0.4269 -2.1277,-0.8336 -2.1277,-2.0333 0,-0.915 0.7426,-1.6267 2.0475,-1.6267 0.863,0 1.666,0.2644 2.2683,0.6507 l 0.5825,-1.1997 c -0.8234,-0.488 -1.9074,-0.7726 -3.0115,-0.7726 -2.2884,0 -3.5932,1.2403 -3.5932,2.9483 0,1.9724 1.5056,2.6637 3.0312,3.2331 1.2646,0.4677 2.188,0.9151 2.188,2.0739 0,1.0778 -0.9234,1.7691 -2.3085,1.7691 -0.8632,0 -1.8668,-0.2846 -2.5894,-0.6913 l -0.6023,1.3014 c 0.9635,0.5083 2.0877,0.7726 3.2118,0.7726 z"
       fill="#ff6300"
       id="path10" />
    <path
       d="m 136.143,83.8826 h 1.666 v -7.6862 c 0,-2.135 -1.465,-3.4973 -3.694,-3.4973 -1.585,0 -2.87,0.6303 -3.532,1.2607 -0.582,-0.6914 -1.746,-1.2607 -3.432,-1.2607 -1.406,0 -2.69,0.3253 -3.734,0.7726 v 10.4109 h 1.686 v -9.4145 c 0.542,-0.2237 1.285,-0.3864 2.148,-0.3864 1.505,0 2.529,0.7524 2.529,1.9927 v 7.8082 h 1.666 v -8.8655 c 0.522,-0.5694 1.345,-0.9354 2.349,-0.9354 1.365,0 2.348,0.8337 2.348,2.2571 z"
       fill="#ff6300"
       id="path12" />
    <path
       fill-rule="evenodd"
       clip-rule="evenodd"
       d="m 86.1115,83.3336 c -0.7628,0.4269 -2.3085,0.7726 -3.7337,0.7726 -2.9709,0 -4.4564,-1.2811 -4.4564,-3.355 0,-3.1314 3.3323,-3.5991 6.6043,-3.7821 v -0.8337 c 0,-1.6266 -1.064,-2.135 -2.5694,-2.135 -1.0037,0 -2.2483,0.3253 -2.9509,0.671 l -0.4416,-1.1997 c 0.8231,-0.3863 2.1881,-0.7726 3.5329,-0.7726 2.429,0 4.0148,0.976 4.0148,3.5787 z m -1.5858,-5.1852 v 4.3311 c -0.3815,0.1831 -1.3651,0.3456 -2.188,0.3456 -1.887,0 -2.8305,-0.8336 -2.8305,-2.1147 0,-2.2655 2.5828,-2.4181 4.9812,-2.5598 z"
       fill="#ff6300"
       id="path14" />
    <path
       fill-rule="evenodd"
       clip-rule="evenodd"
       d="m 111.189,78.1892 c 0,4.1276 -2.168,5.917 -5.199,5.917 -1.325,0 -2.61,-0.3457 -3.432,-0.7726 V 67.9207 h 1.686 v 5.3274 c 0.562,-0.2644 1.425,-0.488 2.248,-0.488 2.79,0 4.697,2.0537 4.697,5.4291 z m -4.918,-4.0871 c 1.947,0 3.232,1.5657 3.232,4.1887 0,3.1518 -1.506,4.4327 -3.433,4.4327 -0.742,0 -1.465,-0.1627 -1.826,-0.3456 v -7.8285 c 0.502,-0.2643 1.305,-0.4473 2.027,-0.4473 z"
       fill="#ff6300"
       id="path16" />
    <path
       fill-rule="evenodd"
       clip-rule="evenodd"
       d="m 121.681,78.3925 c 0,3.2533 -1.606,5.7137 -4.596,5.7137 -2.991,0 -4.597,-2.4604 -4.597,-5.7137 0,-3.2534 1.606,-5.6934 4.597,-5.6934 2.99,0 4.596,2.44 4.596,5.6934 z m -4.596,-4.3108 c 1.967,0 2.93,1.7691 2.93,4.2904 0,2.5214 -0.963,4.3311 -2.93,4.3311 -1.968,0 -2.931,-1.8097 -2.931,-4.3311 0,-2.5213 0.963,-4.2904 2.931,-4.2904 z"
       fill="#ff6300"
       id="path18" />
    <path
       fill-rule="evenodd"
       clip-rule="evenodd"
       d="m 148.575,78.1892 c 0,4.1276 -2.169,5.917 -5.199,5.917 -1.325,0 -2.609,-0.3457 -3.433,-0.7726 V 67.9207 h 1.686 v 5.3274 c 0.562,-0.2644 1.425,-0.488 2.248,-0.488 2.791,0 4.698,2.0537 4.698,5.4291 z m -4.919,-4.0871 c 1.948,0 3.233,1.5657 3.233,4.1887 0,3.1518 -1.506,4.4327 -3.433,4.4327 -0.743,0 -1.466,-0.1627 -1.827,-0.3456 v -7.8285 c 0.502,-0.2643 1.304,-0.4473 2.027,-0.4473 z"
       fill="#ff6300"
       id="path20" />
    <path
       d="m 32.3956,83.8826 h -3.8943 v -6.9339 c 0,-0.7523 -0.3614,-1.1589 -1.1843,-1.1589 -0.3012,0 -0.6023,0.061 -0.8231,0.1626 v 7.9302 H 22.5996 V 67.9207 h 3.8943 v 5.185 c 0.562,-0.2236 1.2445,-0.366 1.927,-0.366 2.6097,0 3.9747,1.342 3.9747,3.7821 z m 11.6031,-0.549 c -1.0439,0.488 -2.9107,0.8133 -4.7173,0.8133 -3.3322,0 -4.9984,-1.22 -4.9984,-4.2904 v -6.9338 h 3.8943 v 7.0354 c 0,0.6914 0.3814,0.9963 1.1041,0.9963 0.3613,0 0.6624,-0.0406 0.823,-0.1016 v -7.9301 h 3.8943 z m 11.7053,0 c -0.9233,0.4677 -2.5694,0.8133 -4.4763,0.8133 -3.6935,0 -5.6809,-1.9927 -5.6809,-5.7544 0,-3.3957 1.7264,-5.5714 5.1188,-5.5714 0.3814,0 0.8631,0.0813 1.1441,0.1626 v -5.063 h 3.8943 z m -3.8943,-2.3181 v -5.1647 c -0.1203,-0.061 -0.4215,-0.122 -0.7025,-0.122 -1.0839,0 -1.6661,1.037 -1.6661,2.623 0,1.8707 0.6023,2.745 1.7062,2.745 0.2611,0 0.522,-0.0203 0.6624,-0.0813 z m 9.7737,2.8671 H 57.6891 V 67.9207 h 3.8943 z"
       fill="#000000"
       id="path22" />
  </g>
  <defs
     id="defs29">
    <clipPath
       id="clip0_256_2027">
      <rect
         width="150"
         height="23.1481"
         fill="#ffffff"
         transform="translate(0,63.426)"
         id="rect26"
         x="0"
         y="0" />
    </clipPath>
  </defs>
</svg>

<svg width="150" height="150" viewBox="0 0 150 150" fill="none" xmlns="http://www.w3.org/2000/svg">
<g clip-path="url(#clip0_256_2027)">
<path fill-rule="evenodd" clip-rule="evenodd" d="M15.0615 78.4821C15.0422 78.4821 15.019 78.4743 15.0074 78.4547C14.9959 78.4391 14.992 78.4157 14.9959 78.3962C15.3626 77.2023 15.4861 75.9459 15.3587 74.7052C15.3587 74.6818 15.3433 74.6623 15.3202 74.6545C14.0965 74.077 13.3129 72.8402 13.3052 71.4785C13.3052 71.0181 13.3901 70.5655 13.5599 70.1402C13.5678 70.1168 13.5678 70.0934 13.5522 70.0739C13.3439 69.8008 13.1238 69.5355 12.8883 69.2857C11.5489 67.8616 9.7965 66.9018 7.88581 66.539C7.85494 66.5351 7.83178 66.5078 7.83178 66.4726C7.83178 66.4414 7.85107 66.4141 7.88196 66.4063C10.6187 65.6923 13.5291 66.3166 15.7447 68.0918C15.7562 68.0996 15.7718 68.1074 15.7833 68.1074C15.7911 68.1074 15.7949 68.1074 15.8026 68.1074C16.1152 68.0099 16.4434 67.9631 16.7714 67.9631C18.1958 67.9592 19.4811 68.8371 20.0062 70.1753C20.5311 71.5136 20.1953 73.0431 19.157 74.0302C19.1415 74.0458 19.1338 74.0653 19.1377 74.0848C19.1916 74.4906 19.2187 74.9003 19.2226 75.3138C19.2226 75.3529 19.2226 75.388 19.2187 75.427V75.4972C19.2187 75.4972 19.2072 75.5245 19.1995 75.5362C18.1263 76.8862 16.6981 77.9046 15.0808 78.4782H15.0577L15.0615 78.4821ZM3.67844 81.7555C3.67844 81.7555 3.6437 81.7477 3.63213 81.736C1.66739 79.7189 0.73714 76.8901 1.11928 74.0848C1.11928 74.0653 1.11542 74.0419 1.09998 74.0302C-0.0773146 72.9182 -0.339793 71.1351 0.459222 69.7227C1.25824 68.3103 2.91031 67.6392 4.4543 68.0996C4.4736 68.1074 4.49676 68.0996 4.5122 68.0879C4.90205 67.7758 5.31508 67.4988 5.74739 67.253C5.75511 67.2491 5.76668 67.2452 5.77827 67.2452C7.47666 67.5105 9.07083 68.2518 10.3755 69.3872C10.3948 69.4028 10.4025 69.4301 10.3948 69.4535C10.3909 69.4769 10.3716 69.4964 10.3446 69.5003C9.12101 69.7774 7.96687 70.3119 6.95556 71.061C6.93626 71.0727 6.92854 71.0961 6.92854 71.1195C6.94012 71.2366 6.94784 71.3575 6.94784 71.4746C6.93626 73.2186 5.66633 74.6935 3.95636 74.9432C3.9332 74.9432 3.9139 74.9627 3.90618 74.9822C3.78266 75.2826 3.67459 75.5987 3.5858 75.9108C3.03768 77.7953 3.09173 79.8086 3.74019 81.6618C3.74793 81.6814 3.74406 81.7048 3.73248 81.7204C3.7209 81.736 3.69775 81.7477 3.67844 81.7477V81.7555ZM10.1632 86.5741C8.55745 86.5741 7.15627 85.4622 6.77801 83.8819C6.77414 83.8624 6.7587 83.8429 6.7394 83.8351C6.28007 83.6479 5.84002 83.4254 5.41929 83.1679C5.40771 83.1601 5.39613 83.1484 5.39227 83.1367C4.77468 81.5215 4.61641 79.7657 4.93679 78.0646C4.94066 78.0412 4.95995 78.0217 4.98311 78.0138H4.99469C5.014 78.0138 5.03329 78.0178 5.04873 78.0334C5.89792 78.9618 6.92854 79.7033 8.07496 80.2144C8.08267 80.2144 8.09039 80.2183 8.10198 80.2183C8.11742 80.2183 8.12899 80.2144 8.14058 80.2066C9.65369 79.1102 11.7535 79.4144 12.8999 80.8971C12.9115 80.9128 12.9308 80.9245 12.9501 80.9206H12.9578C13.2743 80.8776 13.5986 80.8152 13.9151 80.7371C15.8065 80.2728 17.5087 79.2155 18.7748 77.7211C18.7864 77.7055 18.8057 77.6977 18.8249 77.6977C18.8366 77.6977 18.8482 77.6977 18.8559 77.7055C18.8829 77.7211 18.8944 77.7524 18.8867 77.7797C18.1225 80.5031 16.1693 82.7271 13.5832 83.8117C13.5639 83.8195 13.5484 83.8351 13.5445 83.8585C13.1778 85.4427 11.7805 86.5663 10.1709 86.5702L10.1632 86.5741Z" fill="#FF6300"/>
<path d="M66.5839 84.1062C69.1332 84.1062 70.6186 82.8456 70.6186 80.9544C70.6186 78.9009 69.0931 78.2908 67.4872 77.6807C66.343 77.2538 65.3593 76.8471 65.3593 75.6474C65.3593 74.7324 66.1021 74.0207 67.4068 74.0207C68.27 74.0207 69.073 74.2851 69.6751 74.6714L70.2573 73.4717C69.4343 72.9837 68.3502 72.6991 67.2463 72.6991C64.9579 72.6991 63.6531 73.9394 63.6531 75.6474C63.6531 77.6198 65.1587 78.3111 66.6842 78.8805C67.9489 79.3482 68.8722 79.7956 68.8722 80.9544C68.8722 82.0322 67.9489 82.7235 66.5638 82.7235C65.7006 82.7235 64.697 82.4389 63.9742 82.0322L63.3721 83.3336C64.3356 83.8419 65.4597 84.1062 66.5839 84.1062Z" fill="#FF6300"/>
<path d="M75.8024 84.0046C76.2641 84.0046 76.6857 83.9232 76.9065 83.8216V82.3982C76.7459 82.4592 76.4649 82.4999 76.2039 82.4999C75.3207 82.4999 74.578 82.0728 74.578 80.9544V74.2037H76.9065V72.9227H74.578V69.7304L72.952 70.2794V72.9227H71.3862V74.2037H72.952V81.0359C72.952 83.0285 74.036 84.0046 75.8024 84.0046Z" fill="#FF6300"/>
<path d="M91.7217 84.0046C92.1834 84.0046 92.6049 83.9232 92.8258 83.8216V82.3982C92.6651 82.4592 92.3841 82.4999 92.1232 82.4999C91.2399 82.4999 90.4972 82.0728 90.4972 80.9544V74.2037H92.8258V72.9227H90.4972V69.7304L88.8713 70.2794V72.9227H87.3055V74.2037H88.8713V81.0359C88.8713 83.0285 89.9553 84.0046 91.7217 84.0046Z" fill="#FF6300"/>
<path d="M96.8541 84.1062C99.4034 84.1062 100.889 82.8456 100.889 80.9544C100.889 78.9009 99.3633 78.2908 97.7574 77.6807C96.6132 77.2538 95.6297 76.8471 95.6297 75.6474C95.6297 74.7324 96.3723 74.0207 97.6772 74.0207C98.5402 74.0207 99.3432 74.2851 99.9455 74.6714L100.528 73.4717C99.7046 72.9837 98.6206 72.6991 97.5165 72.6991C95.2281 72.6991 93.9233 73.9394 93.9233 75.6474C93.9233 77.6198 95.4289 78.3111 96.9545 78.8805C98.2191 79.3482 99.1425 79.7956 99.1425 80.9544C99.1425 82.0322 98.2191 82.7235 96.834 82.7235C95.9708 82.7235 94.9672 82.4389 94.2446 82.0322L93.6423 83.3336C94.6058 83.8419 95.73 84.1062 96.8541 84.1062Z" fill="#FF6300"/>
<path d="M136.143 83.8826H137.809V76.1964C137.809 74.0614 136.344 72.6991 134.115 72.6991C132.53 72.6991 131.245 73.3294 130.583 73.9598C130.001 73.2684 128.837 72.6991 127.151 72.6991C125.745 72.6991 124.461 73.0244 123.417 73.4717V83.8826H125.103V74.4681C125.645 74.2444 126.388 74.0817 127.251 74.0817C128.756 74.0817 129.78 74.8341 129.78 76.0744V83.8826H131.446V75.0171C131.968 74.4477 132.791 74.0817 133.795 74.0817C135.16 74.0817 136.143 74.9154 136.143 76.3388V83.8826Z" fill="#FF6300"/>
<path fill-rule="evenodd" clip-rule="evenodd" d="M86.1115 83.3336C85.3487 83.7605 83.803 84.1062 82.3778 84.1062C79.4069 84.1062 77.9214 82.8251 77.9214 80.7512C77.9214 77.6198 81.2537 77.1521 84.5257 76.9691V76.1354C84.5257 74.5088 83.4617 74.0004 81.9563 74.0004C80.9526 74.0004 79.708 74.3257 79.0054 74.6714L78.5638 73.4717C79.3869 73.0854 80.7519 72.6991 82.0967 72.6991C84.5257 72.6991 86.1115 73.6751 86.1115 76.2778V83.3336ZM84.5257 78.1484V82.4795C84.1442 82.6626 83.1606 82.8251 82.3377 82.8251C80.4507 82.8251 79.5072 81.9915 79.5072 80.7104C79.5072 78.4449 82.09 78.2923 84.4884 78.1506L84.5257 78.1484Z" fill="#FF6300"/>
<path fill-rule="evenodd" clip-rule="evenodd" d="M111.189 78.1892C111.189 82.3168 109.021 84.1062 105.99 84.1062C104.665 84.1062 103.38 83.7605 102.558 83.3336V67.9207H104.244V73.2481C104.806 72.9837 105.669 72.7601 106.492 72.7601C109.282 72.7601 111.189 74.8138 111.189 78.1892ZM106.271 74.1021C108.218 74.1021 109.503 75.6678 109.503 78.2908C109.503 81.4426 107.997 82.7235 106.07 82.7235C105.328 82.7235 104.605 82.5608 104.244 82.3779V74.5494C104.746 74.2851 105.549 74.1021 106.271 74.1021Z" fill="#FF6300"/>
<path fill-rule="evenodd" clip-rule="evenodd" d="M121.681 78.3925C121.681 81.6458 120.075 84.1062 117.085 84.1062C114.094 84.1062 112.488 81.6458 112.488 78.3925C112.488 75.1391 114.094 72.6991 117.085 72.6991C120.075 72.6991 121.681 75.1391 121.681 78.3925ZM117.085 74.0817C119.052 74.0817 120.015 75.8508 120.015 78.3721C120.015 80.8935 119.052 82.7032 117.085 82.7032C115.117 82.7032 114.154 80.8935 114.154 78.3721C114.154 75.8508 115.117 74.0817 117.085 74.0817Z" fill="#FF6300"/>
<path fill-rule="evenodd" clip-rule="evenodd" d="M148.575 78.1892C148.575 82.3168 146.406 84.1062 143.376 84.1062C142.051 84.1062 140.767 83.7605 139.943 83.3336V67.9207H141.629V73.2481C142.191 72.9837 143.054 72.7601 143.877 72.7601C146.668 72.7601 148.575 74.8138 148.575 78.1892ZM143.656 74.1021C145.604 74.1021 146.889 75.6678 146.889 78.2908C146.889 81.4426 145.383 82.7235 143.456 82.7235C142.713 82.7235 141.99 82.5608 141.629 82.3779V74.5494C142.131 74.2851 142.933 74.1021 143.656 74.1021Z" fill="#FF6300"/>
<path d="M32.3956 83.8826H28.5013V76.9487C28.5013 76.1964 28.1399 75.7898 27.317 75.7898C27.0158 75.7898 26.7147 75.8508 26.4939 75.9524V83.8826H22.5996V67.9207H26.4939V73.1057C27.0559 72.8821 27.7384 72.7397 28.4209 72.7397C31.0306 72.7397 32.3956 74.0817 32.3956 76.5218V83.8826ZM43.9987 83.3336C42.9548 83.8216 41.088 84.1469 39.2814 84.1469C35.9492 84.1469 34.283 82.9269 34.283 79.8565V72.9227H38.1773V79.9581C38.1773 80.6495 38.5587 80.9544 39.2814 80.9544C39.6427 80.9544 39.9438 80.9138 40.1044 80.8528V72.9227H43.9987V83.3336ZM55.704 83.3336C54.7807 83.8013 53.1346 84.1469 51.2277 84.1469C47.5342 84.1469 45.5468 82.1542 45.5468 78.3925C45.5468 74.9968 47.2732 72.8211 50.6656 72.8211C51.047 72.8211 51.5287 72.9024 51.8097 72.9837V67.9207H55.704V83.3336ZM51.8097 81.0155V75.8508C51.6894 75.7898 51.3882 75.7288 51.1072 75.7288C50.0233 75.7288 49.4411 76.7658 49.4411 78.3518C49.4411 80.2225 50.0434 81.0968 51.1473 81.0968C51.4084 81.0968 51.6693 81.0765 51.8097 81.0155ZM61.5834 83.8826H57.6891V67.9207H61.5834V83.8826Z" fill="black"/>
</g>
<defs>
<clipPath id="clip0_256_2027">
<rect width="150" height="23.1481" fill="white" transform="translate(0 63.426)"/>
</clipPath>
</defs>
</svg>
